X: 475
M: C|
L: 1/8
K: D
V: 1
e |\
fA A/A/A (Te>dB)e | fA A/A/A Te2de | fA A/A/A e>dBg | {g}aefd Te2d :||: e |
fdfd Te>dBe | fdfd Te2(de) | fdfd Te>dBg | aefd Te2d :|
V: 2 clef=bass middle=d
d'2d2 g2G2 | d'2d2 a2d2 | d'2d2 g2G2 | f2g2 a2d :||: a |
d'2d2 g2G2 | d'2d2 a2d2 | d'2d2 g2G2 | f2g2 a2d :|

